Numix-GalliumOS/22/mimetypes/text-x-install.svg

<?xml version="1.0" encoding="UTF-8" standalone="no"?>
<svg
   xmlns:dc="http://purl.org/dc/elements/1.1/"
   xmlns:cc="http://creativecommons.org/ns#"
   xmlns:rdf="http://www.w3.org/1999/02/22-rdf-syntax-ns#"
   xmlns:svg="http://www.w3.org/2000/svg"
   xmlns="http://www.w3.org/2000/svg"
   xmlns:sodipodi="http://sodipodi.sourceforge.net/DTD/sodipodi-0.dtd"
   xmlns:inkscape="http://www.inkscape.org/namespaces/inkscape"
   width="22"
   height="22"
   viewBox="0 0 22 22"
   id="svg2"
   version="1.1"
   inkscape:version="0.48.5 r10040"
   sodipodi:docname="text-x-install.svg">
  <metadata
     id="metadata20">
    <rdf:RDF>
      <cc:Work
         rdf:about="">
        <dc:format>image/svg+xml</dc:format>
        <dc:type
           rdf:resource="http://purl.org/dc/dcmitype/StillImage" />
      </cc:Work>
    </rdf:RDF>
  </metadata>
  <defs
     id="defs18" />
  <sodipodi:namedview
     pagecolor="#ffffff"
     bordercolor="#666666"
     borderopacity="1"
     objecttolerance="10"
     gridtolerance="10"
     guidetolerance="10"
     inkscape:pageopacity="0"
     inkscape:pageshadow="2"
     inkscape:window-width="1280"
     inkscape:window-height="970"
     id="namedview16"
     showgrid="true"
     inkscape:zoom="20.85965"
     inkscape:cx="21.724588"
     inkscape:cy="9.6300859"
     inkscape:window-x="0"
     inkscape:window-y="0"
     inkscape:window-maximized="1"
     inkscape:current-layer="svg2">
    <inkscape:grid
       type="xygrid"
       id="grid3008"
       empspacing="5"
       visible="true"
       enabled="true"
       snapvisiblegridlinesonly="true" />
  </sodipodi:namedview>
  <path
     style="fill:#4d9a05;fill-opacity:1"
     d="M 4,0 C 3.527343,0 3,0.527344 3,1 l 0,20 c 0,0.445312 0.554687,1 1,1 l 14,0 c 0.445313,0 0.992367,-0.554753 1,-1 L 19,6 13,0 z"
     id="path4"
     inkscape:connector-curvature="0"
     sodipodi:nodetypes="ssssssccs" />
  <path
     style="fill:#000000;fill-opacity:0.19599998"
     d="m 14,6 5,5 0,-5 z"
     id="path6"
     inkscape:connector-curvature="0"
     sodipodi:nodetypes="cccc" />
  <path
     style="fill:#ffffff;fill-opacity:0.39200003"
     d="m 13,0 6,6 -5,0 C 13.554688,6 13,5.445312 13,5 z"
     id="path8"
     inkscape:connector-curvature="0"
     sodipodi:nodetypes="ccssc" />
  <path
     style="fill:#ffffff"
     sodipodi:nodetypes="cccccccc"
     inkscape:connector-curvature="0"
     id="path12"
     d="m 9.999997,7 c 0.66797,0 1.332032,0 2.000002,0 l 0,4 L 13,11 10.999998,13 8.999996,11 9.999997,11 z" />
  <path
     style="fill:#ffffff"
     sodipodi:nodetypes="cccccccccc"
     inkscape:connector-curvature="0"
     id="path14"
     d="m 6,14 0,4 10,0 0,-4 z m 4.97603,1 4.02397,0 0,2 -4,0 z" />
</svg>

<svg xmlns="http://www.w3.org/2000/svg" viewBox="0 0 22 22">
 <path d="m 4 0 c -0.473 0 -1 0.527 -1 1 l 0 20 c 0 0.445 0.555 1 1 1 l 14 0 c 0.445 0 0.992 -0.555 1 -1 l 0 -15 -6 -6 z" style="fill:#4d9a05;fill-opacity:1"/>
 <path d="m 14 6 5 5 0 -5 z" style="fill:#000;fill-opacity:0.196"/>
 <path d="m 13 0 6 6 -5 0 c -0.445 0 -1 -0.555 -1 -1 z" style="fill:#fff;fill-opacity:0.392"/>
 <path d="m 10 7 c 0.668 0 1.332 0 2 0 l 0 4 l 1 0 -2 2 -2 -2 1 0 z" style="fill:#fff"/>
 <path d="m 6 14 0 4 10 0 0 -4 z m 4.976 1 4.02 0 0 2 -4 0 z" style="fill:#fff"/>
</svg>
